X:267
T: ES WOHNT EIN MUELLER AN JENEM TEICH
N: E0146
O: Europa, Mitteleuropa, Deutschland, Brandenburg
R: erzaehlendes Volks - Lied, Scherz, Schwank
M: 2/4
L: 1/16
K: Bb
F2 | B2B2B2B2 | B2G2F4 |
e4d2d2 | c4z2
c2 | f2c2c2B2 | A2G2F4 |
B2BBB2BB | BBBBB2
B2 | cBABcBAB | c2c2c2
f2 | d2d2c2c2 | B3df2
e2 | d2d2c2c2 | B4z2

@@@ Tune index: 3917
